X: 1
T:Double 'G' Walkabout
M:C|
L:1/8
Q:80
C:Bruce Gandy/Michael Grey
S:Hornpipe
K:HP
|: {g}f3/4e/4|
{Gdc}d{e}A{g}A3/4B/4{g}A/4B3/4|
{Gdc}d{g}d3/4f/4a3/4f/4{g}d3/4f/4|  !
{g}e3/4A/4{gAGAG}A{g}A3/4e/4{A}e3/4A/4|
{g}A3/4e/4{A}e3/4f/4{a}g3/4f/4{g}e3/4f/4|
{Gdc}d{e}A{g}A3/4B/4{g}A/4B3/4|  !
{Gdc}d{g}d3/4f/4a3/4f/4{g}d3/4f/4|
{g}e3/4A/4{G}A3/4e/4{gAGAG}A{g}e3/4f/4|
{a}g3/4e/4{g}c/4e3/4{Gdc}d:| |:  !
{g}f3/4g/4|
a3/4g/4{a}f3/4a/4{AGAG}A{g}A3/4d/4|
{g}f3/4d/4{gdedG}da3/4f/4{g}d3/4f/4|  !
{g}e3/4A/4a3/4g/4a3/4f/4{g}e3/4c/4|
{gAGAG}A{g}e3/4f/4{a}g3/4f/4{g}e3/4f/4|
{g}f3/4g/4|  !
a3/4g/4{a}f3/4a/4{AGAG}A{g}A3/4d/4|
{g}e3/4A/4{G}A3/4e/4{gAGAG}A{g}e3/4f/4|
{a}g3/4e/4{g}c/4e3/4{Gdc}d:| |:  !
{g}f3/4e/4|
{g}d3/4f/4{gAGAG}A{g}A{g}d3/4f/4|
{gAGAG}A{g}d3/4A/4a3/4f/4{g}d3/4f/4|  !
{g}e3/4A/4{gAGAG}A{g}A3/4e/4{A}e3/4A/4|
{g}A3/4e/4{A}e3/4f/4{a}g3/4f/4{g}e3/4f/4|
{g}f3/4e/4|  !
{g}d3/4f/4{gAGAG}A{g}A{g}d3/4f/4|
{g}e3/4A/4{G}A3/4e/4{gAGAG}A{g}e3/4f/4|
{a}g3/4e/4{g}c/4e3/4{Gdc}d:| |:  !
{g}f3/4g/4|
{ag}a3/2g/2{g}fa|
A3/4f/4{e}f3/4a/4{g}a3/4f/4{g}d/4A3/4|  !
{g}e3/4A/4a3/4g/4a3/4f/4{g}e3/4c/4|
{gAGAG}A{g}e3/4f/4{a}g3/4f/4{g}e3/4f/4|
{ag}a3/2g/2{g}fa|  !
A3/4f/4{e}f3/4a/4{g}a3/4f/4{g}d/4A3/4|
{g}e3/4A/4{G}A3/4e/4{gAGAG}A{g}e3/4f/4|
{a}g3/4e/4{g}c/4e3/4{Gdc}d:|  !
